X:1
T:A Plaintive Plea
T:A Plaintive Plea
T:Daniel Otis Teasley
T:Clara McAlister Brooks, 1918
T:Public Domain Courtesy of the Cyber Hymnal™
T:Public Domain Courtesy of the Cyber Hymnal™
C:Daniel Otis Teasley
Z:Public Domain
Z:Courtesy of the Cyber Hymnal™
%%score ( 1 2 ) ( 3 4 )
L:1/8
Q:1/4=95
M:4/4
K:Ab
V:1 treble 
V:2 treble 
V:3 bass 
V:4 bass 
V:1
 [CE]<[CA] [DB]/ | [Ec]4- [Ec]>[CE] [B,G]>[DB] | [CA]6 [CE]2 | [DF]3 [DA] [Fd]2 [Fd]2 | %4
w: 1.~A plain- tive|plea * comes o’er the|sea From|na- tions in dis-|
w: 2.~The rip- ened|grain * on In- dia’s|plain, Still|waits for reap- ers|
w: 3.~The strong com-|mand * to ev- ery|land— “Go,|spread the Gos- pel|
w: 4.~A plain- tive|plea, * oh, can it|be Their|souls are doomed and|
 [Ec]4- [Ec]>[CE] [CA]>[DB] | [Ec]4- [Ec]>[_Ge] [Ge]>[Ge] | [Fd]6 [Fd]2 | [Ec]3 [DB] [CA]2 [CG]2 | %8
w: tress; * From dark- est|night * they ask for|light, Their|ru- ined land to|
w: true; * Hours swift- ly|fly * while dai- ly|die The|mil- lions in their|
w: news!” * Then haste a-|way, * till truth shall|sway Its|scep- ter o’er the|
w: lost? * Go save them|now * till all shall|bow Be-|fore the Sav- ior’s|
 [CF]4- [CF]3/2 ||"^Refrain" C<F G/ | (z3/2 [CA]>)GA>B x3 | z3/2 [Fc]>cc>A x5/2 | %12
w: bless. *||||
w: woe. *||||
w: seas. *|A plain- tive|* plea comes o’er|* the sea; *|
w: cross. *||||
 z3/2 [EG]>AG>G x5/2 | z3/2 [CF]>[CE][CA]>[DB] x5/2 | [Ec]4- [Ec]>[_Ge] [Ge]>[Ge] | [Fd]6 [Fd]2 | %16
w: ||||
w: ||||
w: * How long, O|* Lord, still must|* * * they wait?|* Oh,|
w: ||||
 [Ec]3 [DB] [CA]2 [DG]2 | [CA]4- [CA]3/2 |] %18
w: ||
w: ||
w: has- ten there with|faith *|
w: ||
V:2
 x5/2 | x8 | x8 | x8 | x8 | x8 | x8 | x8 | x11/2 || x5/2 | A6- C/ C3/2 C/ | c4- F/ F3/2 F/ x3/2 | %12
 G4- =E/ E3/2 E/ x3/2 | F4- C/ C3/2 C/ x3/2 | x8 | x8 | x8 | x11/2 |] %18
V:3
 z/ z2 | z3/2 ([A,,A,]<[A,,A,][A,,A,]/ [A,,A,]3/2) z/ z2 | %2
 z3/2 ([A,,A,]<[A,,A,][A,,A,]/) [A,,A,]2 [A,,A,]2 | [D,A,]3 [D,F,] [D,A,]2 [D,A,]2 | %4
 [A,,A,]4- [A,,A,]3/2 z/ z2 | z3/2 ([A,,A,]<[A,,A,][A,,A,]/ [A,,A,]3/2) z/ z2 | %6
 z3/2 ([D,A,]<[D,A,][D,A,]/) [D,A,]2 [B,,A,]2 | [C,A,]3 [D,F,] [E,A,]2 [^E,B,]2 | %8
 [F,A,]4- [F,A,]3/2 || z/ z2 | z3/2 ([F,A,]<[F,A,][F,A,]/ [F,A,]3/2) z/ z2 x/ | %11
 z3/2 ([F,A,]<[F,A,][F,A,]/ [F,A,]3/2) z/ z2 | z3/2 ([C,C]<[C,C][C,C]/ [C,C]3/2) z/ z2 | %13
 z3/2 ([F,A,]<[F,A,][F,A,]/ [F,A,]3/2) z/ z2 | z3/2 ([A,,A,]<[A,,A,][A,,A,]/ [A,,A,]3/2) z/ z2 | %15
 z3/2 ([D,A,]<[D,A,][D,A,]/) [D,A,]2 [D,A,]2 | [C,A,]3 [D,F,] E,2 [E,,E,]2 | %17
 [A,,E,]4- [A,,E,]3/2 |] %18
V:4
 x5/2 | x8 | x8 | x8 | x8 | x8 | x8 | x8 | x11/2 || x5/2 | x17/2 | x8 | x8 | x8 | x8 | x8 | %16
 x4 E,2 x2 | x11/2 |] %18

